!!!OTL: ALLES WAS ODEM HAT
!!!ARE: Europa, Mitteleuropa, Deutschland
!!!SCT: F1010
!!!YEM: Copyright 1995, estate of Helmut Schaffrath.
**kern
*ICvox
*Ivox
*M3/4
*k[f#c#g#]
*A:
=1
{4a
4a
4a
=2
4.ee
8dd
4cc#}
=3
{4b
4a
4b
=4
2.cc#}
=5
{4cc#
4cc#
4cc#
=6
4.dd
8dd
4dd}
=7
{4ee
4ee
4ee
=8
2ff#
4dd}
=9
{2ee
4ee
=10
4.ee
8dd
4cc#}
=11
{2b
4b
=12
2.cc#}
==
!!!AGN: Erbauungs - Lied, religioes, Lob
!!!ONB: ESAC (Essen Associative Code) Database: FINK
!!!AMT: simple triple
!!!AIN: vox
!!!EED: Helmut Schaffrath
!!!EEV: 1.0
*-
